X:1
T:Title
L:1/8
M:2/4
I:linebreak $
K:D
V:1 treble nm="Voice"
V:1
"Bm" B2 Bc | dB Bd |"A" cA Ac |"Bm" d/c/B/A/ BF |"Bm" B2 Bc | dB B2 |"A" ef/e/ dc | BA"Bm" B2 :: %8
"Bm" f2 df |"A" ec cd | ef/e/ dc |"Bm" Bc de |"Bm" f2 df |"A" ec cd | ef/e/ dc | BA"Bm" B2 :| %16
